X:1
T:Title
%%score { ( 1 3 ) | 2 }
L:1/8
Q:1/4=96
M:4/4
K:Ab
V:1 treble nm="Grand Piano"
V:3 treble 
V:2 bass 
V:1
 [Ec]2 [CE]2 [CA][CG][CB][CA] | [DA]2 G6 | d2 G2 G[EG][EA][EB] | [Ec]6 z2 | %4
w: Robert~Harkness * * * * *||||
 [Ec]2 [CE]2 [CA][CG][CB][CA] | [DA]2 G6 | d2 G2 ddcB | [CA]6 z2 | [Ec]2 [CE]2 [CA][CG][CB][CA] | %9
w: |||||
 [DG]2 d2 d4 | d2 G2 G[EG][EA][EB] | [Ec]2 d2 c4 | e>e dc [Ac] [GB]3 | z2 z [FB] z4 | %14
w: |||||
 c>c dc [=DB][DF][DG][DA] | [Ec]2 [DB]2 [CA]4 |] %16
w: ||
V:2
 [A,,A,]2 [A,,A,]2 [A,,E,][A,,E,][A,,E,][A,,E,] | [B,,E,]2 [E,B,D]6 | %2
 [E,G,E]2 [E,B,D]2 [E,B,D][D,B,][C,A,][B,,G,] | [A,,A,]6 z2 | %4
 [A,,A,]2 [A,,A,]2 [A,,E,][A,,E,][A,,E,][A,,E,] | [B,,E,]2 [E,B,D]6 | %6
 [E,G,E]2 [E,G,D]2 [E,G,E][E,G,E][E,A,E][E,G,D] | [A,,A,]6 z2 | %8
 [A,,A,]2 [A,,A,]2 [A,,E,][A,,E,][A,,E,][A,,E,] | [B,,E,]2 [E,G,D]2 [E,G,E]4 | %10
 [E,G,E]2 [E,B,D]2 [E,B,D][D,B,][C,A,][B,,G,] | [A,,A,]2[K:treble] [A,F]2 [A,E]4 | %12
 [A,CA]>[A,CA] [A,FA][A,EA][K:bass] [E,E] [E,D]3 | [F,C][E,C][D,D].[D,A,] [C,G,]4 | %14
 [F,=A,E]>[F,A,E] [F,A,E][F,A,E] [B,,_A,][B,,A,][B,,B,][B,,A,] | [E,A,]2 [E,G,]2 [A,,A,]4 |] %16
V:3
 x8 | x8 | x8 | x8 | x8 | x8 | x8 | x8 | x8 | x8 | x8 | x8 | x8 | [FA][_GA] .[FA]>F, [=Ec]4 | x8 | %15
 x8 |] %16

